dist/img/signal_disconnect.svg

<svg width="41" height="41" viewBox="0 0 41 41" fill="none" xmlns="http://www.w3.org/2000/svg">
<path d="M28.8707 25.1552L27.2478 23.5323C28.045 22.6212 28.6643 21.6175 29.1056 20.5214C29.5469 19.4252 29.7676 18.2792 29.7676 17.0833C29.7676 15.8306 29.5327 14.649 29.0629 13.5385C28.5931 12.4281 27.9311 11.4174 27.077 10.5063L28.6999 8.88334C29.7818 9.96528 30.6146 11.2181 31.1983 12.6417C31.782 14.0653 32.0738 15.5458 32.0738 17.0833C32.0738 18.5924 31.7891 20.0302 31.2197 21.3969C30.6502 22.7635 29.8672 24.0163 28.8707 25.1552ZM23.5322 19.774L17.8093 14.051C18.1509 13.7094 18.5638 13.4531 19.0478 13.2823C19.5318 13.1115 20.0159 13.026 20.4999 13.026C21.6388 13.026 22.5997 13.4175 23.3827 14.2005C24.1657 14.9835 24.5572 15.9444 24.5572 17.0833C24.5572 17.5674 24.4718 18.0443 24.3009 18.5141C24.1301 18.9839 23.8738 19.4038 23.5322 19.774ZM32.928 29.1698L31.3051 27.5469C32.6148 26.0948 33.6541 24.479 34.4228 22.6995C35.1916 20.92 35.5759 19.0479 35.5759 17.0833C35.5759 15.0903 35.1844 13.1826 34.4015 11.3604C33.6185 9.5382 32.5152 7.91528 31.0916 6.49167L32.7572 4.82605C34.4086 6.47744 35.6756 8.3566 36.5582 10.4635C37.4409 12.5705 37.8822 14.7771 37.8822 17.0833C37.8822 19.3611 37.4409 21.5321 36.5582 23.5964C35.6756 25.6606 34.4655 27.5184 32.928 29.1698ZM35.0207 38.7365L21.952 25.6677V36.0458H19.0478V22.7635L11.4884 15.2042C11.3745 15.5174 11.3034 15.8377 11.2749 16.1651C11.2464 16.4925 11.2322 16.8129 11.2322 17.126C11.2607 18.3788 11.4955 19.5675 11.9369 20.6922C12.3782 21.8168 13.0402 22.8063 13.9228 23.6604L12.2999 25.2833C11.1895 24.2014 10.3495 22.9486 9.78009 21.525C9.21065 20.1014 8.92593 18.6208 8.92593 17.0833C8.92593 16.4285 8.97575 15.7879 9.07541 15.1615C9.17506 14.5351 9.33878 13.9087 9.56655 13.2823L6.96134 10.6771C6.47732 11.6736 6.10718 12.7129 5.85093 13.7948C5.59468 14.8767 5.46655 15.9729 5.46655 17.0833C5.46655 19.0764 5.84381 20.984 6.59832 22.8063C7.35284 24.6285 8.45614 26.2514 9.90822 27.675L8.24259 29.3406C6.59121 27.7177 5.32419 25.8457 4.44155 23.7245C3.55891 21.6033 3.11759 19.3896 3.11759 17.0833C3.11759 15.6597 3.29555 14.2575 3.65145 12.8766C4.00735 11.4957 4.51273 10.1646 5.16759 8.88334L2.26343 5.97917L4.1853 4.0573L36.9426 36.8146L35.0207 38.7365Z" fill="#00E0FF"/>
</svg>

<svg width="41" height="41" fill="none" xmlns="http://www.w3.org/2000/svg"><path d="m28.87 25.155-1.622-1.623a10.505 10.505 0 0 0 1.858-3.01 9.121 9.121 0 0 0 .662-3.439 9.004 9.004 0 0 0-.705-3.544 10.248 10.248 0 0 0-1.986-3.033L28.7 8.883a11.353 11.353 0 0 1 2.498 3.759 11.59 11.59 0 0 1 .876 4.441c0 1.51-.285 2.947-.854 4.314a13.652 13.652 0 0 1-2.35 3.758Zm-5.338-5.381-5.723-5.723a3.257 3.257 0 0 1 1.239-.769 4.34 4.34 0 0 1 1.452-.256c1.139 0 2.1.392 2.883 1.175.783.782 1.174 1.743 1.174 2.882 0 .484-.085.961-.256 1.431-.17.47-.427.89-.769 1.26Zm9.396 9.396-1.623-1.623a17.635 17.635 0 0 0 3.118-4.848 14.012 14.012 0 0 0 1.153-5.616c0-1.993-.392-3.9-1.175-5.723a15.467 15.467 0 0 0-3.31-4.868l1.666-1.666a17.44 17.44 0 0 1 3.801 5.638 16.963 16.963 0 0 1 1.324 6.62c0 2.277-.441 4.448-1.324 6.512a19.197 19.197 0 0 1-3.63 5.574Zm2.093 9.566L21.952 25.669v10.378h-2.904V22.764l-7.56-7.56a3.752 3.752 0 0 0-.213.961c-.029.328-.043.648-.043.961.029 1.253.264 2.441.705 3.566a8.317 8.317 0 0 0 1.986 2.968L12.3 25.283a10.79 10.79 0 0 1-2.52-3.758 11.852 11.852 0 0 1-.854-4.442c0-.654.05-1.295.15-1.921.1-.627.263-1.253.49-1.88l-2.605-2.605a15.057 15.057 0 0 0-1.11 3.118 14.22 14.22 0 0 0-.384 3.288c0 1.993.377 3.901 1.131 5.723a14.573 14.573 0 0 0 3.31 4.869l-1.665 1.666a16.908 16.908 0 0 1-3.801-5.617 17.12 17.12 0 0 1-1.324-6.64c0-1.424.178-2.826.533-4.207a19.395 19.395 0 0 1 1.517-3.994L2.263 5.98l1.922-1.922 32.758 32.758-1.922 1.922Z" fill="#00E0FF"/></svg>
